**kern
*staff1
*I"Piano
=1- 	=1-
*clefG2
*k[b-e-a-]
*E-:
*M4/4
1r
=2 	=2
1r
=3 	=3
1r
=4 	=4
1r
=5 	=5
1r
=6 	=6
1r
=7 	=7
1r
=8 	=8
8r
8c/L
8d-/
8e-/J
8f/L
8e-/
8d-/
8c/J
=9!|: 	=9!|:
1g-
=10 	=10
!!linebreak:original
8r
8g-/L
8f/
8e-/J
8f/L
8e-/J
12f/L
12g-/
12a-/J
=11 	=11
1an
=12 	=12
8r
8an/L
8a-/
8g-/J
8a-/L
8g-/J
12a-/L
12an/
12b-/J
=13 	=13
1bn
=14 	=14
!!linebreak:original
8b-/L
8a-/J
24e-/LL
24f/
24e-/J
8c/J
8Bn/
4g/
8d/
=15 	=15
8f/L
8c/J
2.e-/
=16 	=16
8r
8c/L
8d-/
8e-/J
8f/L
8e-/
8d-/
8c/J
=17:|! 	=17:|!
8f/L
8c/J
2.e-/
=18 	=18
!!linebreak:original
8r
8e-/L
8f/
8f#/J
8g/L
8a-/
8b-/
8bn/J
=19|| 	=19||
4cc\
12b-/L
12f/
12d-/J
4.g/
8b-\
=20 	=20
4ff\
12ee-\L
12b-\
12g-\J
4.cc\
8b-\
=21 	=21
!!linebreak:original
8a-/L
8f/
8a-/
[8bn/J
4b\]
8an/L
[8a-/J
=22 	=22
2.a-/]
8r
8a-/
=23 	=23
4ee-\
12dd-/L
12b-/
12en/J
2cc\
=24 	=24
4cc-\
12b-/L
12en/
12d-/J
4a-/
4g/
=25 	=25
!!linebreak:original
8g-/L
8e-/
8g-/
[8g-/J
8g-/L]
8e-/
8g-/
8f/J
=26 	=26
8r
8c/L
8d-/
8e-/J
8f/L
8e-/
8d-/
8c/J
=27|| 	=27||
1g-
=28 	=28
8r
8g-/L
8f/
8e-/J
8f/L
8e-/J
12f/L
12g-/
12a-/J
=29 	=29
1an
=30 	=30
!!linebreak:original
8r
8an/L
8a-/
8g-/J
8a-/L
8g-/J
12a-/L
12an/
12b-/J
=31 	=31
1bn
=32 	=32
8b-/L
8a-/J
24e-/LL
24f/
24e-/J
8c/J
8Bn/
4g/
8d/
=33 	=33
8f/L
8c/J
[2.e-/
=34 	=34
1e-]
== 	==
*-
